SVG_Azure_All/App Service Export Template.svg

<?xml version="1.0" encoding="UTF-8" standalone="no"?>
<!-- Generated by Microsoft Visio, SVG Export App Service Export Template.svg Page-1 -->

<svg
   xmlns:dc="http://purl.org/dc/elements/1.1/"
   xmlns:cc="http://creativecommons.org/ns#"
   xmlns:rdf="http://www.w3.org/1999/02/22-rdf-syntax-ns#"
   xmlns:svg="http://www.w3.org/2000/svg"
   xmlns="http://www.w3.org/2000/svg"
   xmlns:sodipodi="http://sodipodi.sourceforge.net/DTD/sodipodi-0.dtd"
   xmlns:inkscape="http://www.inkscape.org/namespaces/inkscape"
   width="0.74805582in"
   height="0.78742939in"
   viewBox="0 0 53.859772 56.694899"
   xml:space="preserve"
   class="st8"
   version="1.1"
   id="svg71"
   sodipodi:docname="App Service Export Template.svg"
   style="font-size:12px;overflow:visible;color-interpolation-filters:sRGB;fill:none;fill-rule:evenodd;stroke-linecap:square;stroke-miterlimit:3"
   inkscape:version="0.92.5 (2060ec1f9f, 2020-04-08)"><metadata
   id="metadata75"><rdf:RDF><cc:Work
       rdf:about=""><dc:format>image/svg+xml</dc:format><dc:type
         rdf:resource="http://purl.org/dc/dcmitype/StillImage" /></cc:Work></rdf:RDF></metadata><sodipodi:namedview
   pagecolor="#ffffff"
   bordercolor="#666666"
   borderopacity="1"
   objecttolerance="10"
   gridtolerance="10"
   guidetolerance="10"
   inkscape:pageopacity="0"
   inkscape:pageshadow="2"
   inkscape:window-width="640"
   inkscape:window-height="480"
   id="namedview73"
   showgrid="false"
   inkscape:zoom="1.4193037"
   inkscape:cx="35.905348"
   inkscape:cy="37.786411"
   inkscape:window-x="0"
   inkscape:window-y="0"
   inkscape:window-maximized="0"
   inkscape:current-layer="svg71" />
	<style
   type="text/css"
   id="style2">
	<![CDATA[
		.st1 {fill:#1f56a3;stroke:none;stroke-linecap:butt;stroke-width:34}
		.st2 {fill:#1490df;stroke:none;stroke-linecap:butt;stroke-width:34}
		.st3 {fill:#ffffff;stroke:none;stroke-linecap:butt;stroke-width:34}
		.st4 {fill:url(#grad0-12);stroke:none;stroke-linecap:butt;stroke-width:34}
		.st5 {fill:#999999;stroke:none;stroke-linecap:butt;stroke-width:34}
		.st6 {fill:#999999;fill-opacity:0.5;stroke:none;stroke-linecap:butt;stroke-width:34}
		.st7 {fill:#949494;stroke:none;stroke-linecap:butt;stroke-width:34}
		.st8 {fill:none;fill-rule:evenodd;font-size:12px;overflow:visible;stroke-linecap:square;stroke-miterlimit:3}
	]]>
	</style>

	<defs
   id="Patterns_And_Gradients">
		<linearGradient
   id="grad0-12"
   x1="-0.045996906"
   y1="91.582445"
   x2="25.355848"
   y2="91.582445"
   gradientTransform="scale(0.93805638,1.066034)"
   gradientUnits="userSpaceOnUse">
			<stop
   offset="0"
   stop-color="#6bb9f2"
   stop-opacity="1"
   id="stop4" />
			<stop
   offset="1"
   stop-color="#1b93eb"
   stop-opacity="1"
   id="stop6" />
		</linearGradient>
	</defs>
	<g
   id="g69"
   transform="translate(-34.000257,-33.9994)">
		<title
   id="title10">Page-1</title>
		<g
   id="group10030-1"
   transform="translate(34,-34.0157)">
			<title
   id="title12">App Service Export Template</title>
			<g
   id="group10031-2">
				<title
   id="title14">MsPortalFx.base.images-16</title>
				<g
   id="shape10032-3"
   transform="translate(12.0538)">
					<title
   id="title16">Sheet.10032</title>
					<path
   d="m 26.9,121.81 c -6.26,-0.85 -6.15,-4.92 -6.12,-11.51 H 9.06 c 0.03,6.59 0.14,10.67 -6.11,11.51 A 3.18733,3.22483 -180 0 0 0,124.71 h 29.87 a 3.20381,3.2415 -180 0 0 -2.97,-2.9 z"
   class="st1"
   id="path18"
   inkscape:connector-curvature="0"
   style="fill:#1f56a3;stroke:none;stroke-width:34;stroke-linecap:butt" />
				</g>
				<g
   id="shape10033-5"
   transform="translate(0,-14.2199)">
					<title
   id="title21">Sheet.10033</title>
					<path
   d="m 0,122.86 a 1.82608,1.84756 -180 0 0 1.83,1.85 h 50.2 a 1.82608,1.84756 -180 0 0 1.83,-1.85 V 87.97 A 1.82608,1.84756 -180 0 0 52.03,86.12 H 1.83 A 1.82608,1.84756 -180 0 0 0,87.97 Z"
   class="st2"
   id="path23"
   inkscape:connector-curvature="0"
   style="fill:#1490df;stroke:none;stroke-width:34;stroke-linecap:butt" />
				</g>
				<g
   id="shape10034-7"
   transform="translate(3.09833,-17.8016)">
					<title
   id="title26">Sheet.10034</title>
					<path
   d="m 0,123.78 a 0.913041,0.923782 -180 0 0 0.91302,0.92376 L 46.67,124.71 a 0.913041,0.923782 -180 0 0 0.91302,-0.92376 L 47.58,93.61 A 0.913041,0.923782 -180 0 0 46.66698,92.686239 L 0.91,92.69 a 0.913041,0.923782 -180 0 0 -0.91302,0.923761 z"
   class="st3"
   id="path28"
   inkscape:connector-curvature="0"
   style="fill:#ffffff;stroke:none;stroke-width:34;stroke-linecap:butt" />
				</g>
				<g
   id="shape10035-9"
   transform="translate(15.0656,-29.6149)">
					<title
   id="title31">Sheet.10035</title>
					<path
   d="m 23.61,113.37 -10.83,10.96 a 1.29207,1.30727 0 0 1 -1.82,0 L 0.13,113.37 a 0.576817,0.583604 0 0 1 0.408716,-1.00046 L 7.2,112.37 a 0.576817,0.583604 -180 0 0 0.576817,-0.5836 L 7.77,98.1 A 0.458158,0.463548 0 0 1 8.23475,97.633117 L 15.51,97.63 a 0.458158,0.463548 0 0 1 0.458158,0.466883 L 15.97,111.79 a 0.580114,0.586938 -180 0 0 0.580114,0.5836 L 23.21,112.37 a 0.576817,0.583604 0 0 1 0.40542,0.99713 z"
   class="st4"
   id="path33"
   inkscape:connector-curvature="0"
   style="fill:url(#grad0-12);stroke:none;stroke-width:34;stroke-linecap:butt" />
				</g>
				<g
   id="group10036-13"
   transform="translate(11.2001,-21.5)">
					<title
   id="title36">Sheet.10036</title>
					<g
   id="shape10037-14">
						<title
   id="title38">Sheet.10037</title>
						<path
   d="m 0.53,117.43 h 2.38 a 0.527376,0.53358 0 0 1 0.527376,0.53358 L 3.44,124.71 H 1.06 A 1.05805,1.0705 0 0 1 0,123.64 v -5.68 a 0.527376,0.53358 0 0 1 0.527376,-0.53691 z"
   class="st5"
   id="path40"
   inkscape:connector-curvature="0"
   style="fill:#999999;stroke:none;stroke-width:34;stroke-linecap:butt" />
					</g>
					<g
   id="shape10038-16">
						<title
   id="title43">Sheet.10038</title>
						<path
   d="m 0.53,117.43 h 2.38 a 0.527376,0.53358 0 0 1 0.527376,0.53358 L 3.44,124.71 H 1.06 A 1.05805,1.0705 0 0 1 0,123.64 v -5.68 a 0.527376,0.53358 0 0 1 0.527376,-0.53691 z"
   class="st6"
   id="path45"
   inkscape:connector-curvature="0"
   style="fill:#999999;fill-opacity:0.5;stroke:none;stroke-width:34;stroke-linecap:butt" />
					</g>
				</g>
				<g
   id="group10039-18"
   transform="translate(39.2104,-21.51)">
					<title
   id="title49">Sheet.10039</title>
					<g
   id="shape10040-19">
						<title
   id="title51">Sheet.10040</title>
						<path
   d="m 0.53,117.44 h 2.39 a 0.527376,0.53358 0 0 1 0.527376,0.53358 L 3.44,123.64 a 1.05805,1.0705 0 0 1 -1.05,1.07 H 0 v -6.74 a 0.527376,0.53358 0 0 1 0.530672,-0.53691 z"
   class="st5"
   id="path53"
   inkscape:connector-curvature="0"
   style="fill:#999999;stroke:none;stroke-width:34;stroke-linecap:butt" />
					</g>
					<g
   id="shape10041-21">
						<title
   id="title56">Sheet.10041</title>
						<path
   d="m 0.53,117.44 h 2.39 a 0.527376,0.53358 0 0 1 0.527376,0.53358 L 3.44,123.64 a 1.05805,1.0705 0 0 1 -1.05,1.07 H 0 v -6.74 a 0.527376,0.53358 0 0 1 0.530672,-0.53691 z"
   class="st6"
   id="path58"
   inkscape:connector-curvature="0"
   style="fill:#999999;fill-opacity:0.5;stroke:none;stroke-width:34;stroke-linecap:butt" />
					</g>
				</g>
				<g
   id="shape10042-23"
   transform="translate(11.2001,-21.5)">
					<title
   id="title62">Sheet.10042</title>
					<path
   d="m 0,123.65 v -2.34 h 31.46 v 2.34 a 1.04816,1.06049 0 0 1 -1.04,1.06 H 1.05 A 1.04816,1.06049 0 0 1 0,123.65 Z"
   class="st7"
   id="path64"
   inkscape:connector-curvature="0"
   style="fill:#949494;stroke:none;stroke-width:34;stroke-linecap:butt" />
				</g>
			</g>
		</g>
	</g>
</svg>

<?xml version="1.0" encoding="UTF-8" standalone="no"?>
<!DOCTYPE svg PUBLIC "-//W3C//DTD SVG 1.1//EN" "http://www.w3.org/Graphics/SVG/1.1/DTD/svg11.dtd">
<!-- Generated by Microsoft Visio, SVG Export App Service Export Template.svg Page-1 -->
<svg xmlns="http://www.w3.org/2000/svg" xmlns:xlink="http://www.w3.org/1999/xlink" xmlns:ev="http://www.w3.org/2001/xml-events"
		width="1.69248in" height="1.73207in" viewBox="0 0 121.858 124.709" xml:space="preserve" color-interpolation-filters="sRGB"
		class="st8">
	<style type="text/css">
	<![CDATA[
		.st1 {fill:#1f56a3;stroke:none;stroke-linecap:butt;stroke-width:34}
		.st2 {fill:#1490df;stroke:none;stroke-linecap:butt;stroke-width:34}
		.st3 {fill:#ffffff;stroke:none;stroke-linecap:butt;stroke-width:34}
		.st4 {fill:url(#grad0-12);stroke:none;stroke-linecap:butt;stroke-width:34}
		.st5 {fill:#999999;stroke:none;stroke-linecap:butt;stroke-width:34}
		.st6 {fill:#999999;fill-opacity:0.5;stroke:none;stroke-linecap:butt;stroke-width:34}
		.st7 {fill:#949494;stroke:none;stroke-linecap:butt;stroke-width:34}
		.st8 {fill:none;fill-rule:evenodd;font-size:12px;overflow:visible;stroke-linecap:square;stroke-miterlimit:3}
	]]>
	</style>

	<defs id="Patterns_And_Gradients">
		<linearGradient id="grad0-12" x1="0" y1="0" x2="1" y2="0" gradientTransform="rotate(90 0.5 0.5)">
			<stop offset="0" stop-color="#6bb9f2" stop-opacity="1"/>
			<stop offset="1" stop-color="#1b93eb" stop-opacity="1"/>
		</linearGradient>
	</defs>
	<g>
		<title>Page-1</title>
		<g id="group9825-1" transform="translate(34,-34.0157)">
			<title>App Service Export Template</title>
			<g id="group9826-2">
				<title>MsPortalFx.base.images-16</title>
				<g id="shape9827-3" transform="translate(12.0538,0)">
					<title>Sheet.9827</title>
					<path d="M26.9 121.81 C20.64 120.96 20.75 116.89 20.78 110.3 L9.06 110.3 C9.09 116.89 9.2 120.97 2.95 121.81
								 A3.18733 3.22483 -180 0 0 0 124.71 L29.87 124.71 A3.20381 3.2415 -180 0 0 26.9 121.81 Z"
							class="st1"/>
				</g>
				<g id="shape9828-5" transform="translate(0,-14.2199)">
					<title>Sheet.9828</title>
					<path d="M0 122.86 A1.82608 1.84756 -180 0 0 1.83 124.71 L52.03 124.71 A1.82608 1.84756 -180 0 0 53.86 122.86
								 L53.86 87.97 A1.82608 1.84756 -180 0 0 52.03 86.12 L1.83 86.12 A1.82608 1.84756 -180 0 0 -0 87.97
								 L0 122.86 Z" class="st2"/>
				</g>
				<g id="shape9829-7" transform="translate(3.09833,-17.8016)">
					<title>Sheet.9829</title>
					<path d="M0 123.78 a0.913041 0.923782 -180 0 0 0.91302 0.923761 L46.67 124.71 a0.913041 0.923782 -180 0 0 0.91302
								 -0.923761 L47.58 93.61 a0.913041 0.923782 -180 0 0 -0.91302 -0.923761 L0.91 92.69 a0.913041 0.923782
								 -180 0 0 -0.91302 0.923761 L0 123.78 Z" class="st3"/>
				</g>
				<g id="shape9830-9" transform="translate(15.0656,-29.6149)">
					<title>Sheet.9830</title>
					<path d="M23.61 113.37 L12.78 124.33 A1.29207 1.30727 0 0 1 10.96 124.33 L0.13 113.37 a0.576817 0.583604 0 0
								 1 0.408716 -1.00046 L7.2 112.37 a0.576817 0.583604 -180 0 0 0.576817 -0.583604 L7.77 98.1 a0.458158
								 0.463548 0 0 1 0.46475 -0.466883 L15.51 97.63 a0.458158 0.463548 0 0 1 0.458158 0.466883 L15.97
								 111.79 a0.580114 0.586938 -180 0 0 0.580114 0.583604 L23.21 112.37 a0.576817 0.583604 0 0 1 0.40542
								 0.997128 Z" class="st4"/>
				</g>
				<g id="group9831-13" transform="translate(11.2001,-21.5)">
					<title>Sheet.9831</title>
					<g id="shape9832-14">
						<title>Sheet.9832</title>
						<path d="M0.53 117.43 L2.91 117.43 a0.527376 0.53358 0 0 1 0.527376 0.53358 L3.44 124.71 L1.06 124.71 A1.05805
									 1.0705 0 0 1 0 123.64 L0 117.96 a0.527376 0.53358 0 0 1 0.527376 -0.536915 Z" class="st5"/>
					</g>
					<g id="shape9833-16">
						<title>Sheet.9833</title>
						<path d="M0.53 117.43 L2.91 117.43 a0.527376 0.53358 0 0 1 0.527376 0.53358 L3.44 124.71 L1.06 124.71 A1.05805
									 1.0705 0 0 1 0 123.64 L0 117.96 a0.527376 0.53358 0 0 1 0.527376 -0.536915 Z" class="st6"/>
					</g>
				</g>
				<g id="group9834-18" transform="translate(39.2104,-21.51)">
					<title>Sheet.9834</title>
					<g id="shape9835-19">
						<title>Sheet.9835</title>
						<path d="M0.53 117.44 L2.92 117.44 a0.527376 0.53358 0 0 1 0.527376 0.53358 L3.44 123.64 A1.05805 1.0705
									 0 0 1 2.39 124.71 L0 124.71 L0 117.97 a0.527376 0.53358 0 0 1 0.530672 -0.536915 Z"
								class="st5"/>
					</g>
					<g id="shape9836-21">
						<title>Sheet.9836</title>
						<path d="M0.53 117.44 L2.92 117.44 a0.527376 0.53358 0 0 1 0.527376 0.53358 L3.44 123.64 A1.05805 1.0705
									 0 0 1 2.39 124.71 L0 124.71 L0 117.97 a0.527376 0.53358 0 0 1 0.530672 -0.536915 Z"
								class="st6"/>
					</g>
				</g>
				<g id="shape9837-23" transform="translate(11.2001,-21.5)">
					<title>Sheet.9837</title>
					<path d="M0 123.65 L0 121.31 L31.46 121.31 L31.46 123.65 A1.04816 1.06049 0 0 1 30.42 124.71 L1.05 124.71 A1.04816
								 1.06049 0 0 1 0 123.65 Z" class="st7"/>
				</g>
			</g>
		</g>
	</g>
</svg>
